X:1
T:Polka Bognolaise 1
M:2/4
L:1/8
S:Skolvan
R:Polka
K:A minor
EA Ac | BA GA/2B/2 |cA Bc | d2   de/2d/2 | (cA) Ac | BA GA/2B/" | cA B
G |1 A2   AG :|2 A2   AA |
|: d2   de | cA Ac | BA GA/2B/2 |cA AB/2c/2 | d2   de/2d/2 | cA Ac | BA
BG | A2
 A z :|
